svg/color/cbu.svg

<?xml version="1.0" encoding="UTF-8" ?>
<!DOCTYPE svg PUBLIC "-//W3C//DTD SVG 1.1//EN" "http://www.w3.org/Graphics/SVG/1.1/DTD/svg11.dtd">
<svg width="250pt" height="250pt" viewBox="0 0 250 250" version="1.1" xmlns="http://www.w3.org/2000/svg">
<g id="#f3f3f2ff">
<path fill="#f3f3f2" opacity="1.00" d=" M 0.00 0.00 L 118.54 0.00 C 102.70 1.22 86.94 4.80 72.53 11.59 C 46.81 23.45 25.39 44.34 12.91 69.76 C 5.09 85.45 0.86 102.84 0.00 120.32 L 0.00 0.00 Z" />
<path fill="#f3f3f2" opacity="1.00" d=" M 129.78 0.00 L 250.00 0.00 L 250.00 120.39 C 248.65 86.83 233.42 54.04 208.18 31.81 C 186.80 12.47 158.53 1.26 129.78 0.00 Z" />
<path fill="#f3f3f2" opacity="1.00" d=" M 119.14 51.37 C 121.51 50.57 123.95 48.49 126.56 49.53 C 151.19 59.95 175.75 70.59 200.45 80.86 C 199.88 102.60 195.87 124.32 188.72 144.87 C 182.42 162.31 172.99 179.57 157.56 190.53 C 141.64 201.85 119.76 203.57 101.94 195.87 C 89.16 190.31 79.20 179.73 72.07 167.97 C 61.18 149.71 55.47 128.86 52.07 108.01 C 50.79 99.03 49.52 90.00 49.49 80.91 C 72.78 71.23 95.92 61.21 119.14 51.37 M 63.23 89.14 C 63.39 101.19 66.28 112.98 68.72 124.72 C 72.08 125.48 75.55 125.11 78.96 125.17 C 94.38 125.21 109.80 125.10 125.22 125.23 C 125.07 109.82 125.31 94.41 125.09 79.01 C 125.22 76.34 125.20 73.67 125.07 71.01 C 125.15 68.41 125.23 65.82 125.20 63.23 C 124.44 63.46 122.93 63.94 122.17 64.18 C 102.51 72.47 82.97 81.05 63.23 89.14 M 125.97 124.91 C 125.71 125.19 125.19 125.75 124.93 126.03 C 124.73 136.67 124.77 147.34 124.93 157.99 C 124.70 167.84 124.77 177.69 125.15 187.53 C 139.58 187.93 153.17 179.84 161.63 168.48 C 171.34 155.74 177.39 140.45 180.91 124.92 C 162.60 124.80 144.28 124.78 125.97 124.91 Z" />
<path fill="#f3f3f2" opacity="1.00" d=" M 0.00 129.58 C 1.32 163.16 16.60 195.99 41.88 218.21 C 63.25 237.56 91.54 248.71 120.27 250.00 L 0.00 250.00 L 0.00 129.58 Z" />
<path fill="#f3f3f2" opacity="1.00" d=" M 218.16 208.20 C 237.53 186.79 248.73 158.48 250.00 129.70 L 250.00 250.00 L 129.74 250.00 C 163.24 248.63 195.97 233.39 218.16 208.20 Z" />
</g>
<g id="#d70125ff">
<path fill="#d70125" opacity="1.00" d=" M 118.54 0.00 L 129.78 0.00 C 158.53 1.26 186.80 12.47 208.18 31.81 C 233.42 54.04 248.65 86.83 250.00 120.39 L 250.00 129.70 C 248.73 158.48 237.53 186.79 218.16 208.20 C 195.97 233.39 163.24 248.63 129.74 250.00 L 120.27 250.00 C 91.54 248.71 63.25 237.56 41.88 218.21 C 16.60 195.99 1.32 163.16 0.00 129.58 L 0.00 120.32 C 0.86 102.84 5.09 85.45 12.91 69.76 C 25.39 44.34 46.81 23.45 72.53 11.59 C 86.94 4.80 102.70 1.22 118.54 0.00 M 119.14 51.37 C 95.92 61.21 72.78 71.23 49.49 80.91 C 49.52 90.00 50.79 99.03 52.07 108.01 C 55.47 128.86 61.18 149.71 72.07 167.97 C 79.20 179.73 89.16 190.31 101.94 195.87 C 119.76 203.57 141.64 201.85 157.56 190.53 C 172.99 179.57 182.42 162.31 188.72 144.87 C 195.87 124.32 199.88 102.60 200.45 80.86 C 175.75 70.59 151.19 59.95 126.56 49.53 C 123.95 48.49 121.51 50.57 119.14 51.37 Z" />
<path fill="#d70125" opacity="1.00" d=" M 63.23 89.14 C 82.97 81.05 102.51 72.47 122.17 64.18 C 122.93 63.94 124.44 63.46 125.20 63.23 C 125.23 65.82 125.15 68.41 125.07 71.01 C 125.20 73.67 125.22 76.34 125.09 79.01 C 125.31 94.41 125.07 109.82 125.22 125.23 C 109.80 125.10 94.38 125.21 78.96 125.17 C 75.55 125.11 72.08 125.48 68.72 124.72 C 66.28 112.98 63.39 101.19 63.23 89.14 Z" />
<path fill="#d70125" opacity="1.00" d=" M 125.97 124.91 C 144.28 124.78 162.60 124.80 180.91 124.92 C 177.39 140.45 171.34 155.74 161.63 168.48 C 153.17 179.84 139.58 187.93 125.15 187.53 C 124.77 177.69 124.70 167.84 124.93 157.99 C 124.77 147.34 124.73 136.67 124.93 126.03 C 125.19 125.75 125.71 125.19 125.97 124.91 Z" />
</g>
</svg>

<?xml version="1.0" encoding="utf-8"?>
<!-- Generator: Adobe Illustrator 26.0.3, SVG Export Plug-In . SVG Version: 6.00 Build 0)  -->
<svg version="1.1" id="Layer_1" xmlns="http://www.w3.org/2000/svg" xmlns:xlink="http://www.w3.org/1999/xlink" x="0px" y="0px"
	 viewBox="0 0 250 250" style="enable-background:new 0 0 250 250;" xml:space="preserve">
<style type="text/css">
	.st0{fill:#F3F3F2;}
	.st1{fill:#D70125;}
</style>
<g id="_x23_f3f3f2ff">
	<path class="st0" d="M119.1,51.4c2.4-0.8,4.8-2.9,7.4-1.8c24.6,10.4,49.2,21.1,73.9,31.3c-0.6,21.7-4.6,43.5-11.7,64
		c-6.3,17.4-15.7,34.7-31.2,45.7c-15.9,11.3-37.8,13-55.6,5.3c-12.8-5.6-22.7-16.1-29.9-27.9c-10.9-18.3-16.6-39.1-20-60
		c-1.3-9-2.5-18-2.6-27.1C72.8,71.2,95.9,61.2,119.1,51.4 M63.2,89.1c0.2,12.1,3,23.8,5.5,35.6c3.4,0.8,6.8,0.4,10.2,0.4
		c15.4,0,30.8-0.1,46.3,0.1c-0.2-15.4,0.1-30.8-0.1-46.2c0.1-2.7,0.1-5.3,0-8c0.1-2.6,0.2-5.2,0.1-7.8c-0.8,0.2-2.3,0.7-3,1
		C102.5,72.5,83,81.1,63.2,89.1 M126,124.9c-0.3,0.3-0.8,0.8-1,1.1c-0.2,10.6-0.2,21.3,0,32c-0.2,9.8-0.2,19.7,0.2,29.5
		c14.4,0.4,28-7.7,36.5-19.1c9.7-12.7,15.8-28,19.3-43.6C162.6,124.8,144.3,124.8,126,124.9z"/>
</g>
<g id="_x23_d70125ff">
	<path class="st1" d="M118.5,0h11.2c28.8,1.3,57,12.5,78.4,31.8c25.2,22.2,40.5,55,41.8,88.6v9.3c-1.3,28.8-12.5,57.1-31.8,78.5
		c-22.2,25.2-54.9,40.4-88.4,41.8h-9.5c-28.7-1.3-57-12.4-78.4-31.8C16.6,196,1.3,163.2,0,129.6v-9.3c0.9-17.5,5.1-34.9,12.9-50.6
		c12.5-25.4,33.9-46.3,59.6-58.2C86.9,4.8,102.7,1.2,118.5,0 M119.1,51.4c-23.2,9.8-46.4,19.9-69.6,29.5c0,9.1,1.3,18.1,2.6,27.1
		c3.4,20.8,9.1,41.7,20,60c7.1,11.8,17.1,22.3,29.9,27.9c17.8,7.7,39.7,6,55.6-5.3c15.4-11,24.9-28.2,31.2-45.7
		c7.1-20.5,11.2-42.3,11.7-64c-24.7-10.3-49.3-20.9-73.9-31.3C123.9,48.5,121.5,50.6,119.1,51.4z"/>
	<path class="st1" d="M63.2,89.1c19.7-8.1,39.3-16.7,58.9-25c0.8-0.2,2.3-0.7,3-1c0,2.6,0,5.2-0.1,7.8c0.1,2.7,0.2,5.3,0,8
		c0.2,15.4,0,30.8,0.1,46.2c-15.4-0.1-30.8,0-46.3-0.1c-3.4-0.1-6.9,0.3-10.2-0.4C66.3,113,63.4,101.2,63.2,89.1z"/>
	<path class="st1" d="M126,124.9c18.3-0.1,36.6-0.1,54.9,0c-3.5,15.5-9.6,30.8-19.3,43.6c-8.5,11.4-22.1,19.4-36.5,19.1
		c-0.4-9.8-0.5-19.7-0.2-29.5c-0.2-10.7-0.2-21.3,0-32C125.2,125.8,125.7,125.2,126,124.9z"/>
</g>
</svg>
